packages/foundations/assets/icons/functional/images/human/wc_sign.svg

<svg xmlns="http://www.w3.org/2000/svg" width="32" height="32" fill="none"><path fill="#1A1C1F" fill-rule="evenodd" d="M2.672 8.176c-.275.087-.57.397-.646.677-.062.234-.014.434 1.727 7.217.986 3.837 1.832 7.061 1.881 7.165.259.546 1.159.66 1.565.199.192-.22.107.056 1.791-5.835.755-2.64 1.379-4.794 1.387-4.786.008.007.667 2.342 1.464 5.187 1.12 3.995 1.481 5.214 1.585 5.353.401.532 1.284.478 1.606-.099.171-.305 3.753-14.069 3.723-14.306a1.2 1.2 0 0 0-.138-.383c-.137-.221-.581-.459-.854-.457-.238.001-.577.155-.746.338-.144.157-.079-.076-1.792 6.42-.582 2.207-1.065 4.005-1.073 3.997s-.653-2.306-1.432-5.106c-.78-2.8-1.461-5.15-1.514-5.224-.451-.624-1.412-.522-1.713.182-.051.12-.736 2.456-1.522 5.192-.786 2.735-1.435 4.967-1.442 4.959-.008-.007-.595-2.293-1.304-5.08S3.904 8.66 3.866 8.587c-.202-.392-.709-.566-1.194-.411m22.635-.035c-.952.11-1.571.283-2.267.633-1.794.9-2.832 2.611-3.234 5.334-.131.884-.133 3.048-.003 3.919.257 1.734.766 3.015 1.575 3.965 1.61 1.89 4.523 2.407 7.633 1.354.807-.273 1.082-.63.953-1.234-.104-.489-.629-.878-1.077-.797a7 7 0 0 0-.62.179c-1.259.411-2.613.499-3.639.238-1.664-.425-2.617-1.861-2.871-4.329-.082-.789-.037-2.632.08-3.323.311-1.833 1.035-3.032 2.164-3.583.63-.307 1.082-.382 2.099-.348.957.031 1.408.12 2.216.436.548.214.688.226.997.086.427-.194.69-.745.56-1.178-.104-.346-.345-.563-.86-.771-1.136-.46-2.673-.701-3.706-.581"/></svg>

<svg width="32" height="32" viewBox="0 0 32 32" fill="none" xmlns="http://www.w3.org/2000/svg"><path d="M2.672 8.176 C 2.397 8.263,2.102 8.573,2.026 8.853 C 1.964 9.087,2.012 9.287,3.753 16.070 C 4.739 19.907,5.585 23.131,5.634 23.235 C 5.893 23.781,6.793 23.895,7.199 23.434 C 7.391 23.214,7.306 23.490,8.990 17.599 C 9.745 14.959,10.369 12.805,10.377 12.813 C 10.385 12.820,11.044 15.155,11.841 18.000 C 12.961 21.995,13.322 23.214,13.426 23.353 C 13.827 23.885,14.710 23.831,15.032 23.254 C 15.203 22.949,18.785 9.185,18.755 8.948 C 18.742 8.839,18.679 8.667,18.617 8.565 C 18.480 8.344,18.036 8.106,17.763 8.108 C 17.525 8.109,17.186 8.263,17.017 8.446 C 16.873 8.603,16.938 8.370,15.225 14.866 C 14.643 17.073,14.160 18.871,14.152 18.863 C 14.144 18.855,13.499 16.557,12.720 13.757 C 11.940 10.957,11.259 8.607,11.206 8.533 C 10.755 7.909,9.794 8.011,9.493 8.715 C 9.442 8.835,8.757 11.171,7.971 13.907 C 7.185 16.642,6.536 18.874,6.529 18.866 C 6.521 18.859,5.934 16.573,5.225 13.786 C 4.516 11.000,3.904 8.660,3.866 8.587 C 3.664 8.195,3.157 8.021,2.672 8.176 M25.307 8.141 C 24.355 8.251,23.736 8.424,23.040 8.774 C 21.246 9.674,20.208 11.385,19.806 14.108 C 19.675 14.992,19.673 17.156,19.803 18.027 C 20.060 19.761,20.569 21.042,21.378 21.992 C 22.988 23.882,25.901 24.399,29.011 23.346 C 29.818 23.073,30.093 22.716,29.964 22.112 C 29.860 21.623,29.335 21.234,28.887 21.315 C 28.795 21.332,28.516 21.412,28.267 21.494 C 27.008 21.905,25.654 21.993,24.628 21.732 C 22.964 21.307,22.011 19.871,21.757 17.403 C 21.675 16.614,21.720 14.771,21.837 14.080 C 22.148 12.247,22.872 11.048,24.001 10.497 C 24.631 10.190,25.083 10.115,26.100 10.149 C 27.057 10.180,27.508 10.269,28.316 10.585 C 28.864 10.799,29.004 10.811,29.313 10.671 C 29.740 10.477,30.003 9.926,29.873 9.493 C 29.769 9.147,29.528 8.930,29.013 8.722 C 27.877 8.262,26.340 8.021,25.307 8.141 " fill="#1A1C1F" stroke="none" fill-rule="evenodd"></path></svg>
